X:542
T: Abschied von Frankfurt (242), S. 519
N: T0430
O: Luxemburg
S: Singendes Volk, Esch-Alzette, 1937 posth.]
N: Junglinster, hhh Vater des Verfassers, 1900
R: Berufslied, Abschiedslied]
M: 2/4
L: 1/16
K: G
 | B4A4 | G2FE2D
D2 | G2G2A2d2 | B4z4
B4A4 | G2FED2
D2 | G2G2A2d2 | B4z2
GA | B2B2B2cB | A2A2A2
BA | G2G2G2AG | F2F2F2
D2 | G2G2A2A2 | B2zcd2B2 | A4G2z2

